X:1
T:The Two Drummers (My Mother was a lady)
M:3/4
L:1/8
K:G
 B| BFA GE D2| B/2B/2 BB AG F3| cc^G BA A/2 E3/2| F3/2 =G/2 AB G3/2 E/2|\
 A2| B| BFA GE D2| BBd cB E2| z EA GF G| dB A3/2 G/2A/2 B3/2| A3/2 D/2 G2 z|\
 F| EGF E^D F| B3/2 c/2 BA FG| E2 z B^G A| ^c3/2 B/2 BF AA/2-A/2| Bdd e d3|\
 c| BFA GE D2| BBd cB E2| z EA GF G| dBA G A/2 B3/2| A3/2 D/2 G2| d2|\
 d4 B2| G4 D2| E2 c4-| c2 z2 E2| F4 c2| B4 ^A2| B6-| B2 z2 B2| B4 F2|\
 B4 A2| G2 B4-| B2 z2 B2| ^c4 A2| B2 ^c4| d6-| d2| z2 e2| d4 B2| G4 D2|\
 E2 c4-| c2 z2 E2| F4| c2| B4 ^A2| B6-| B2 z2 Bc| d2 d4| c4 B2| E2 A4|\
 B4 c2| B2 z2 G2| A4 G2| G6-| G2 z2||
